X: 30795
T: Other Clog, The
R: polka
M: 2/4
K: Gmajor
|:BG GA|BG GB|AD FG|AB c2|
BG GA|BG GB|AD FA|G2 GA:|
|:Bd ce|dg B2|dc A2|ed BA|
Bd ce|dg B>c|dc AF|G2 GA:|

